Adwaita++/actions/16/view-hidden.svg

<svg height="16" width="16" xmlns="http://www.w3.org/2000/svg">
  <path d="m8 3c-6 0-8 5-8 5s2 5 8 5 8-5 8-5-2-5-8-5zm0 2a3 3 0 0 1 3 3 3 3 0 0 1 -3 3 3 3 0 0 1 -3-3 3 3 0 0 1 3-3zm0 2a1 1 0 0 0 -1 1 1 1 0 0 0 1 1 1 1 0 0 0 1-1 1 1 0 0 0 -1-1z" fill="#474747"/>
</svg>

<svg xmlns="http://www.w3.org/2000/svg" width="16" height="16" version="1.1">
 <defs>
  <style id="current-color-scheme" type="text/css">
   .ColorScheme-Text { color:#474747; } .ColorScheme-Highlight { color:#4285f4; }
  </style>
 </defs>
 <path style="fill:currentColor" class="ColorScheme-Text" d="M 8 3 C 2 3 0 8 0 8 C 0 8 2 13 8 13 C 14 13 16 8 16 8 C 16 8 14 3 8 3 z M 8 5 A 3 3 0 0 1 11 8 A 3 3 0 0 1 8 11 A 3 3 0 0 1 5 8 A 3 3 0 0 1 8 5 z M 8 7 A 1 1 0 0 0 7 8 A 1 1 0 0 0 8 9 A 1 1 0 0 0 9 8 A 1 1 0 0 0 8 7 z"/>
</svg>
